X: 58
T: Maple Sugar Gal - Two Step
R: march, polka
Z: 2004 John Chambers <jc@trillian.mit.edu>
S: handwritten MS
M: 2/4
L: 1/8
K: G
Bc \
| "G"d2 d>e | dc BA \
| B2 B>c | B2 cB \
| "D7"BA AB | c>B BA \
|1 BB Bc | BG \
:|2 "G"G4- | "eind"G2 FG ||[K:D]
|: "D"A2 A>B | AF Ad \
| f2 f>e | dA cd \
| "A7"e2 e>f | ec Bc \
|1 "D"d2 cB | "A7"AF GB \
:|2 "D"d2 d>e | "D7"d=c "c.B,."|]
%%sep 2 1 500
